registrations/external-link.svg

<svg xmlns="http://www.w3.org/2000/svg" viewBox="0 0 16 16"><defs><style>.cls-1{fill:#020202}</style></defs><title>external-link</title><g id="Layer_1" data-name="Layer 1"><path class="cls-1" d="M11.981 7.764v5.486h-9.17v-9.4h5.271c.156 0 .037-.2.037-.2l-1.6-1.6h-4a1.512 1.512 0 0 0-1.508 1.511v9.976a1.512 1.512 0 0 0 1.513 1.513h9.745a1.512 1.512 0 0 0 1.512-1.512v-4.23l-1.64-1.64s-.16-.044-.16.096z"/><path class="cls-1" d="M14.408.95H9.131a.451.451 0 0 0-.319.77l1.829 1.83-4.435 4.436a1.1 1.1 0 0 0 1.557 1.556L12.2 5.106l2.021 2.021a.451.451 0 0 0 .77-.319V1.53a.58.58 0 0 0-.583-.58z"/></g></svg>

<svg xmlns="http://www.w3.org/2000/svg" viewBox="0 0 16 16"><defs><style>.cls-1{fill:#020202;}</style></defs><title>external-link</title><g id="Layer_1" data-name="Layer 1"><path class="cls-1" d="M11.981,7.764V13.25H2.811v-9.4H8.082c.156,0,.037-.2.037-.2l-1.6-1.6h-4A1.512,1.512,0,0,0,1.011,3.561v9.976A1.512,1.512,0,0,0,2.524,15.05h9.745a1.512,1.512,0,0,0,1.512-1.512V9.308l-1.64-1.64S11.981,7.624,11.981,7.764Z"/><path class="cls-1" d="M14.408.95H9.131a.451.451,0,0,0-.319.77L10.641,3.55,6.206,7.986A1.1,1.1,0,0,0,7.763,9.542L12.2,5.106l2.021,2.021a.451.451,0,0,0,.77-.319V1.53A.58.58,0,0,0,14.408.95Z"/></g></svg>
